img/carlo-tongue.svg

<svg height="280" viewBox="0 0 264 280" width="264" xmlns="http://www.w3.org/2000/svg" xmlns:xlink="http://www.w3.org/1999/xlink"><defs><path id="a" d="m124 144.610951v18.389049h4c39.764502 0 72 32.235498 72 72v9h-200v-9c0-39.764502 32.235498-72 72-72h4v-18.389049c-17.2373655-8.188579-29.6277754-24.92394-31.6948612-44.7297125-5.8248283-.8234519-10.3051388-5.8291289-10.3051388-11.8812385v-14c0-5.9459926 4.3245733-10.8819269 10-11.8340831v-6.1659169c0-30.927946 25.072054-56 56-56 30.927946 0 56 25.072054 56 56v6.1659169c5.675427.9521562 10 5.8880905 10 11.8340831v14c0 6.0521096-4.48031 11.0577866-10.305139 11.8812385-2.067086 19.8057725-14.457496 36.5411335-31.694861 44.7297125z"/><mask id="b" fill="#fff"><use fill="#fff" fill-rule="evenodd" xlink:href="#a"/></mask><mask id="c" fill="#fff"><use fill="#fff" fill-rule="evenodd" xlink:href="#g"/></mask><mask id="d" fill="#fff"><use fill="#fff" fill-rule="evenodd" xlink:href="#h"/></mask><mask id="e" fill="#fff"><path d="m0 0h264v280h-264z" fill="#fff" fill-rule="evenodd"/></mask><mask id="f" fill="#fff"><use fill="#fff" fill-rule="evenodd" xlink:href="#i"/></mask><path id="g" d="m108 13.0708856c-17.9186994 2.0050524-31.7201576 7.4809485-31.995797 21.574082-25.8577701 10.9231257-44.004203 36.5196581-44.004203 66.3545174v9.000515h200v-9.000515c0-29.8348593-18.146433-55.4313917-44.004203-66.3545018-.275639-14.0931491-14.077098-19.5690452-31.995797-21.5740976v18.9291144c0 13.254834-10.745166 24-24 24-13.254834 0-24-10.745166-24-24z"/><path id="h" d="m29 15.6086957c1.410031 9.6226754 12.062182 17.3913043 25 17.3913043 12.9681454 0 23.6461342-7.816699 25-18.2608696.1012093-.3993978-.224731-1.7391304-2.173913-1.7391304-19.987661 0-35.0865122 0-45.652174 0-1.7905988 0-2.303702 1.2404669-2.173913 2.6086957z"/><path id="i" d="m133.506381 81.3351151c3.857268 1.9955851 6.493619 6.0223586 6.493619 10.6648849v13c0 6.018625-4.430871 11.002364-10.208581 11.867187-1.743226 20.247605-14.260637 37.415797-31.791419 45.743764v18.389049h4c17.490913 0 33.525121 6.236892 46 16.608051v-123.608051c0-20.4345357-8.282732-38.9345357-21.674098-52.3259018-13.391366-13.39136607-31.8913663-21.6740982-52.325902-21.6740982-40.8690715 0-74 33.1309285-74 74v183.716445c13.5691766-1.940919 24-13.610557 24-27.716445v-45.576899c6.9346808-2.222902 14.3271796-3.423101 22-3.423101h4v-18.389049c-11.2273748-5.333544-20.3984628-14.293-26-25.365104v-61.9798883c9.1467898-2.9749531 18.777598-7.2488936 28.3415164-12.7706244 15.403031-8.8929442 28.0898783-19.5544191 36.7246262-30.0982987 1.7649261 5.1981085 4.109113 10.4039386 7.0442885 15.4878117 8.7674499 15.1856679 21.1137549 26.3488574 33.8895689 32.0322018v.2488678c.400422.0671781.794121.1541869 1.18005.2599818.774459.3234068 1.550135.6265866 2.326331.9092164z"/></defs><g fill="none" fill-rule="evenodd"><g transform="translate(32 36)"><use fill="#d0c6ac" xlink:href="#a"/><g fill="#edb98a" mask="url(#b)"><path d="m0 0h264v244h-264z" transform="translate(-32)"/></g><path d="m156 79v23c0 30.927946-25.072054 56-56 56s-56-25.072054-56-56v-23 15c0 30.927946 25.072054 56 56 56s56-25.072054 56-56z" fill="#000" fill-opacity=".1" mask="url(#b)"/></g><g fill-rule="evenodd" transform="translate(0 170)"><use fill="#b7c1db" xlink:href="#g"/><g fill="#5199e4" mask="url(#c)"><path d="m0 0h264v110h-264z"/></g><path d="m102 61.7390531v48.2609469h-7v-51.8497375c2.2037542 1.3097951 4.5467694 2.5105253 7 3.5887906zm67-3.5887906v40.3497375c0 1.932997-1.567003 3.5-3.5 3.5s-3.5-1.567003-3.5-3.5v-36.7609469c2.453231-1.0782653 4.796246-2.2789955 7-3.5887906z" fill="#f4f4f4" mask="url(#c)"/><path d="m90.9601329 12.7243537c-15.0508234 2.8468245-25.4601329 8.518531-25.4601329 19.5833386 0 19.7123172 33.0376807 35.6923077 66.5 35.6923077 33.462319 0 66.5-15.9799905 66.5-35.6923077 0-11.0648076-10.40931-16.7365141-25.460133-19.5833386 9.085054 3.3501061 14.960133 8.9817009 14.960133 18.3525694 0 20.3920523-27.821205 36.9230769-56 36.9230769s-56-16.5310246-56-36.9230769c0-9.3708685 5.8750795-15.0024633 14.9601329-18.3525694z" fill="#000" fill-opacity=".16" mask="url(#c)"/></g><g fill="#000"><g fill-rule="evenodd" transform="translate(78 134)"><use fill="#000" fill-opacity=".7" xlink:href="#h"/><rect fill="#fff" height="16" mask="url(#d)" rx="5" width="31" x="39" y="2"/><path d="m65.9841079 23.7466656c.0104875.0829679.0158921.16752.0158921.2533344v9c0 6.0751322-4.9248678 11-11 11h-1c-6.0751322 0-11-4.9248678-11-11v-9c0-.0858144.0054046-.1703665.0158921-.2533344-.010536-.0814851-.0158921-.1637385-.0158921-.2466656 0-1.9329966 2.9101491-3.5 6.5-3.5 2.010438 0 3.8076958.4914717 5 1.2634601 1.1923042-.7719884 2.989562-1.2634601 5-1.2634601 3.5898509 0 6.5 1.5670034 6.5 3.5 0 .0829271-.0053561.1651805-.0158921.2466656z" fill="#ff4f6d"/></g><path d="m16 8c0 4.418278 5.372583 8 12 8 6.627417 0 12-3.581722 12-8" fill-opacity=".16" transform="translate(104 122)"/><g fill-opacity=".6"><g><circle cx="106" cy="112" r="6"/><circle cx="158" cy="112" r="6"/></g><g transform="translate(76 82)"><path d="m26.0390934 6.21012364c-5.761538.77333852-14.7461621 5.79512426-13.9948334 11.60768746.0246881.1902432.3124702.2495357.4366477.0906826 2.4864964-3.1881586 21.7118896-7.8719456 28.7133596-6.8937786.640785.0897314 1.0637989-.5716808.6267828-.9845084-3.7444838-3.53535244-10.6206709-4.51795845-15.7819567-3.82008306" transform="matrix(.9961947 .08715574 -.08715574 .9961947 1.148612 -2.307541)"/><path d="m85.0390934 6.21012364c-5.761538.77333852-14.7461621 5.79512426-13.9948334 11.60768746.0246881.1902432.3124702.2495357.4366477.0906826 2.4864964-3.1881586 21.7118896-7.8719456 28.7133593-6.8937786.640785.0897314 1.063799-.5716808.626783-.9845084-3.7444837-3.53535244-10.6206708-4.51795845-15.7819566-3.82008306" transform="matrix(-.9961947 .08715574 .08715574 .9961947 170.626875 -7.44973)"/></g></g></g><g fill-rule="evenodd" mask="url(#e)"><g fill-rule="evenodd" transform="translate(-1)"><g fill="none" transform="translate(59 18)"><use fill="#944f23" xlink:href="#i"/><g fill="#e8e1e1" mask="url(#f)"><path d="m0 0h264v280h-264z"/></g></g><path d="m192.506381 99.3351151c4.868119 1.7725869 9.756698 2.7368419 14.493619 2.8131169v-10.148232c0-20.4345357-8.282732-38.9345357-21.674098-52.3259018 13.391366 13.3913661 21.674098 31.8913661 21.674098 52.3259018v123.608051c-12.474879-10.371159-28.509087-16.608051-46-16.608051h-4v-18.389049c17.530782-8.327967 30.048193-25.496159 31.791419-45.743764 5.77771-.864823 10.208581-5.848562 10.208581-11.867187v-13c0-4.642526-2.636351-8.6693-6.493619-10.6648849zm-2.326331-.9092164c-.385929-.1057949-.779628-.1928037-1.18005-.2599818v-.2488678c.392974.1748153.786355.344446 1.18005.5088496zm-107.18005 56.8199483c5.6015372 11.072104 14.7726252 20.03156 26 25.365104v18.389049h-4c-7.6728204 0-15.0653192 1.200199-22 3.423101z" fill="#000" fill-opacity=".24"/></g></g></g></svg>

<svg width="264px" height="280px" viewBox="0 0 264 280" version="1.1" xmlns="http://www.w3.org/2000/svg" xmlns:xlink="http://www.w3.org/1999/xlink"><desc>Created with getavataaars.com</desc><defs><circle id="path-1" cx="120" cy="120" r="120"></circle><path d="M12,160 C12,226.27417 65.72583,280 132,280 C198.27417,280 252,226.27417 252,160 L264,160 L264,-1.42108547e-14 L-3.19744231e-14,-1.42108547e-14 L-3.19744231e-14,160 L12,160 Z" id="path-3"></path><path d="M124,144.610951 L124,163 L128,163 L128,163 C167.764502,163 200,195.235498 200,235 L200,244 L0,244 L0,235 C-4.86974701e-15,195.235498 32.235498,163 72,163 L72,163 L76,163 L76,144.610951 C58.7626345,136.422372 46.3722246,119.687011 44.3051388,99.8812385 C38.4803105,99.0577866 34,94.0521096 34,88 L34,74 C34,68.0540074 38.3245733,63.1180731 44,62.1659169 L44,56 L44,56 C44,25.072054 69.072054,5.68137151e-15 100,0 L100,0 L100,0 C130.927946,-5.68137151e-15 156,25.072054 156,56 L156,62.1659169 C161.675427,63.1180731 166,68.0540074 166,74 L166,88 C166,94.0521096 161.51969,99.0577866 155.694861,99.8812385 C153.627775,119.687011 141.237365,136.422372 124,144.610951 Z" id="path-5"></path></defs><g id="Avataaar" stroke="none" stroke-width="1" fill="none" fill-rule="evenodd"><g transform="translate(-825.000000, -1100.000000)" id="Avataaar/Circle"><g transform="translate(825.000000, 1100.000000)"><g id="Mask"></g><g id="Avataaar" stroke-width="1" fill-rule="evenodd" mask="url(#mask-4)"><g id="Body" transform="translate(32.000000, 36.000000)"><mask id="mask-6" fill="white"><use xlink:href="#path-5"></use></mask><use fill="#D0C6AC" xlink:href="#path-5"></use><g id="Skin/👶🏽-03-Brown" mask="url(#mask-6)" fill="#EDB98A"><g transform="translate(-32.000000, 0.000000)" id="Color"><rect x="0" y="0" width="264" height="244"></rect></g></g><path d="M156,79 L156,102 C156,132.927946 130.927946,158 100,158 C69.072054,158 44,132.927946 44,102 L44,79 L44,94 C44,124.927946 69.072054,150 100,150 C130.927946,150 156,124.927946 156,94 L156,79 Z" id="Neck-Shadow" fill-opacity="0.100000001" fill="#000000" mask="url(#mask-6)"></path></g><g id="Clothing/Hoodie" transform="translate(0.000000, 170.000000)"><defs><path d="M108,13.0708856 C90.0813006,15.075938 76.2798424,20.5518341 76.004203,34.6449676 C50.1464329,45.5680933 32,71.1646257 32,100.999485 L32,100.999485 L32,110 L232,110 L232,100.999485 C232,71.1646257 213.853567,45.5680933 187.995797,34.6449832 C187.720158,20.5518341 173.918699,15.075938 156,13.0708856 L156,32 L156,32 C156,45.254834 145.254834,56 132,56 L132,56 C118.745166,56 108,45.254834 108,32 L108,13.0708856 Z" id="react-path-21"></path></defs><mask id="react-mask-22" fill="white"><use xlink:href="#react-path-21"></use></mask><use id="Hoodie" fill="#B7C1DB" fill-rule="evenodd" xlink:href="#react-path-21"></use><g id="Color/Palette/Gray-01" mask="url(#react-mask-22)" fill-rule="evenodd" fill="#5199E4"><rect id="🖍Color" x="0" y="0" width="264" height="110"></rect></g><path d="M102,61.7390531 L102,110 L95,110 L95,58.1502625 C97.2037542,59.4600576 99.5467694,60.6607878 102,61.7390531 Z M169,58.1502625 L169,98.5 C169,100.432997 167.432997,102 165.5,102 C163.567003,102 162,100.432997 162,98.5 L162,61.7390531 C164.453231,60.6607878 166.796246,59.4600576 169,58.1502625 Z" id="Straps" fill="#F4F4F4" fill-rule="evenodd" mask="url(#react-mask-22)"></path><path d="M90.9601329,12.7243537 C75.9093095,15.5711782 65.5,21.2428847 65.5,32.3076923 C65.5,52.0200095 98.5376807,68 132,68 C165.462319,68 198.5,52.0200095 198.5,32.3076923 C198.5,21.2428847 188.09069,15.5711782 173.039867,12.7243537 C182.124921,16.0744598 188,21.7060546 188,31.0769231 C188,51.4689754 160.178795,68 132,68 C103.821205,68 76,51.4689754 76,31.0769231 C76,21.7060546 81.8750795,16.0744598 90.9601329,12.7243537 Z" id="Shadow" fill-opacity="0.16" fill="#000000" fill-rule="evenodd" mask="url(#react-mask-22)"></path></g><g id="Face" transform="translate(76.000000, 82.000000)" fill="#000000"><g id="Mouth/Tongue" transform="translate(2.000000, 52.000000)"><defs><path d="M29,15.6086957 C30.410031,25.2313711 41.062182,33 54,33 C66.9681454,33 77.6461342,25.183301 79,14.7391304 C79.1012093,14.3397326 78.775269,13 76.826087,13 C56.838426,13 41.7395748,13 31.173913,13 C29.3833142,13 28.870211,14.2404669 29,15.6086957 Z" id="react-path-25"></path></defs><mask id="react-mask-26" fill="white"><use xlink:href="#react-path-25"></use></mask><use id="Mouth" fill-opacity="0.699999988" fill="#000000" fill-rule="evenodd" xlink:href="#react-path-25"></use><rect id="Teeth" fill="#FFFFFF" fill-rule="evenodd" mask="url(#react-mask-26)" x="39" y="2" width="31" height="16" rx="5"></rect><path d="M65.9841079,23.7466656 C65.9945954,23.8296335 66,23.9141856 66,24 L66,33 C66,39.0751322 61.0751322,44 55,44 L54,44 C47.9248678,44 43,39.0751322 43,33 L43,24 L43,24 C43,23.9141856 43.0054046,23.8296335 43.0158921,23.7466656 C43.0053561,23.6651805 43,23.5829271 43,23.5 C43,21.5670034 45.9101491,20 49.5,20 C51.510438,20 53.3076958,20.4914717 54.5,21.2634601 C55.6923042,20.4914717 57.489562,20 59.5,20 C63.0898509,20 66,21.5670034 66,23.5 C66,23.5829271 65.9946439,23.6651805 65.9841079,23.7466656 Z" id="Tongue" fill="#FF4F6D" fill-rule="evenodd"></path></g><g id="Nose/Default" transform="translate(28.000000, 40.000000)" fill-opacity="0.16"><path d="M16,8 C16,12.418278 21.372583,16 28,16 L28,16 C34.627417,16 40,12.418278 40,8" id="Nose"></path></g><g id="Eyes/Default-😀" transform="translate(0.000000, 8.000000)" fill-opacity="0.599999964"><circle id="Eye" cx="30" cy="22" r="6"></circle><circle id="Eye" cx="82" cy="22" r="6"></circle></g><g id="Eyebrow/Natural/Default-Natural" fill-opacity="0.599999964"><path d="M26.0390934,6.21012364 C20.2775554,6.98346216 11.2929313,12.0052479 12.04426,17.8178111 C12.0689481,18.0080543 12.3567302,18.0673468 12.4809077,17.9084937 C14.9674041,14.7203351 34.1927973,10.0365481 41.1942673,11.0147151 C41.8350523,11.1044465 42.2580662,10.4430343 41.8210501,10.0302067 C38.0765663,6.49485426 31.2003792,5.51224825 26.0390934,6.21012364" id="Eyebrow" transform="translate(27.000000, 12.000000) rotate(5.000000) translate(-27.000000, -12.000000) "></path><path d="M85.0390934,6.21012364 C79.2775554,6.98346216 70.2929313,12.0052479 71.04426,17.8178111 C71.0689481,18.0080543 71.3567302,18.0673468 71.4809077,17.9084937 C73.9674041,14.7203351 93.1927973,10.0365481 100.194267,11.0147151 C100.835052,11.1044465 101.258066,10.4430343 100.82105,10.0302067 C97.0765663,6.49485426 90.2003792,5.51224825 85.0390934,6.21012364" id="Eyebrow" transform="translate(86.000000, 12.000000) scale(-1, 1) rotate(5.000000) translate(-86.000000, -12.000000) "></path></g></g><g id="Top" stroke-width="1" fill-rule="evenodd"><defs><rect id="react-path-5" x="0" y="0" width="264" height="280"></rect><path d="M133.506381,81.3351151 C137.363649,83.3307002 140,87.3574737 140,92 L140,105 C140,111.018625 135.569129,116.002364 129.791419,116.867187 C128.048193,137.114792 115.530782,154.282984 98,162.610951 L98,162.610951 L98,181 L102,181 C119.490913,181 135.525121,187.236892 148,197.608051 L148,74 C148,53.5654643 139.717268,35.0654643 126.325902,21.6740982 C112.934536,8.28273213 94.4345357,-3.55271368e-15 74,0 C33.1309285,7.10542736e-15 -7.10542736e-15,33.1309285 0,74 L0,257.716445 C13.5691766,255.775526 24,244.105888 24,230 L24,184.423101 C30.9346808,182.200199 38.3271796,181 46,181 L50,181 L50,162.610951 C38.7726252,157.277407 29.6015372,148.317951 24,137.245847 L24,75.2659587 C33.1467898,72.2910056 42.777598,68.0170651 52.3415164,62.4953343 C67.7445474,53.6023901 80.4313947,42.9409152 89.0661426,32.3970356 C90.8310687,37.5951441 93.1752556,42.8009742 96.1104311,47.8848473 C104.877881,63.0705152 117.224186,74.2337047 130,79.9170491 L130,80.1659169 C130.400422,80.233095 130.794121,80.3201038 131.18005,80.4258987 C131.954509,80.7493055 132.730185,81.0524853 133.506381,81.3351151 Z" id="react-path-6"></path></defs><mask id="react-mask-3" fill="white"><use xlink:href="#react-path-5"></use></mask><g id="Mask"></g><g id="Top/Long-Hair/Straight" mask="url(#react-mask-3)"><g transform="translate(-1.000000, 0.000000)"><g id="Hair" stroke-width="1" fill="none" fill-rule="evenodd" transform="translate(59.000000, 18.000000)"><mask id="react-mask-4" fill="white"><use xlink:href="#react-path-6"></use></mask><use id="Mask-Hair" fill="#944F23" xlink:href="#react-path-6"></use><g id="Skin/👶🏽-03-Brown" mask="url(#react-mask-4)" fill="#E8E1E1"><g transform="translate(0.000000, 0.000000) " id="Color"><rect x="0" y="0" width="264" height="280"></rect></g></g></g><path d="M192.506381,99.3351151 C197.3745,101.107702 202.263079,102.071957 207,102.148232 L207,102.148232 L207,92 C207,71.5654643 198.717268,53.0654643 185.325902,39.6740982 C198.717268,53.0654643 207,71.5654643 207,92 L207,215.608051 C194.525121,205.236892 178.490913,199 161,199 L157,199 L157,180.610951 L157,180.610951 C174.530782,172.282984 187.048193,155.114792 188.791419,134.867187 C194.569129,134.002364 199,129.018625 199,123 L199,110 C199,105.357474 196.363649,101.3307 192.506381,99.3351151 Z M190.18005,98.4258987 C189.794121,98.3201038 189.400422,98.233095 189,98.1659169 L189,97.9170491 C189.392974,98.0918644 189.786355,98.2614951 190.18005,98.4258987 Z M83,155.245847 C88.6015372,166.317951 97.7726252,175.277407 109,180.610951 L109,199 L105,199 C97.3271796,199 89.9346808,200.200199 83,202.423101 L83,155.245847 Z" id="Shadow" fill-opacity="0.24" fill="#000000" fill-rule="evenodd"></path></g></g></g></g></g></g></g></svg>
